src/client/images/icons/edit-icon.svg

<svg width="100%" height="100%" viewBox="0 0 17 17" fill="none" xmlns="http://www.w3.org/2000/svg">
<path d="M1.25088 13.574C1.29682 13.1605 1.31979 12.9537 1.38235 12.7605C1.43785 12.589 1.51627 12.4259 1.61547 12.2754C1.72729 12.1059 1.87438 11.9588 2.16857 11.6646L12.4582 1.37499C13.3326 0.500537 14.7504 0.500538 15.6249 1.37499V1.37499C16.4993 2.24944 16.4993 3.66721 15.6249 4.54166L5.33523 14.8313C5.04105 15.1254 4.89396 15.2725 4.72439 15.3844C4.57395 15.4836 4.41079 15.562 4.23935 15.6175C4.04611 15.68 3.83936 15.703 3.42587 15.749L0.979004 16.0208L1.25088 13.574Z" stroke-width="1.3" stroke-linecap="round" stroke-linejoin="round"/>
</svg>

<svg width="17" height="17" fill="none" xmlns="http://www.w3.org/2000/svg"><path d="M1.25 13.574c.047-.413.07-.62.132-.813a2 2 0 0 1 .233-.486c.112-.17.26-.316.554-.61l10.29-10.29a2.24 2.24 0 0 1 3.166 0v0a2.24 2.24 0 0 1 0 3.167l-10.29 10.29c-.294.293-.441.44-.61.552a2 2 0 0 1-.486.233c-.193.063-.4.086-.813.132l-2.447.272.272-2.447Z" stroke="#23262A" stroke-width="1.3" stroke-linecap="round" stroke-linejoin="round"/></svg>
